img/svg/logos/10.svg

<svg width="106" height="42" viewBox="0 0 106 42" fill="none" xmlns="http://www.w3.org/2000/svg">
<path fill-rule="evenodd" clip-rule="evenodd" d="M43.1176 0.231445L46.6586 5.96482L40.4521 11.6764H51.1782L52.1858 9.38429H46.2691L49.8487 5.93679L47.7563 2.51109H57.5134L48.9506 22.0905H51.8832L61.4632 0.231445H43.1143" fill="#898989"/>
<path fill-rule="evenodd" clip-rule="evenodd" d="M84.7129 31.5295H86.5652V41.2298H84.7129V31.5295Z" fill="#727272"/>
<path fill-rule="evenodd" clip-rule="evenodd" d="M84.6279 28.2559H86.6484V30.2244H84.6279V28.2559Z" fill="#727272"/>
<path fill-rule="evenodd" clip-rule="evenodd" d="M81.5399 28.258L79.2391 38.3394H79.1538L76.7604 31.5292H75.1031L72.3806 38.3322H72.2953L70.4722 28.2507H68.4785L70.9767 41.2295H72.8291L75.7855 34.0501H75.8708L78.4251 41.2367H80.2774L83.4459 28.258H81.5375" fill="#727272"/>
<path fill-rule="evenodd" clip-rule="evenodd" d="M55.7733 39.8159C53.9771 39.8159 52.7414 38.4216 52.7414 36.4C52.7414 34.5159 53.8064 32.902 55.5491 32.902C57.5404 32.902 58.0741 34.5424 58.1302 35.5556H54.6863L54.0404 37.032H60.0118C60.0386 36.6484 60.0386 36.5495 60.0386 36.3493C60.0386 33.5606 58.6079 31.3484 55.5199 31.3484C52.8535 31.3484 50.8037 33.4785 50.8037 36.4144C50.8037 39.4203 52.7682 41.4153 55.5759 41.4153C57.2601 41.4153 58.7444 40.8147 59.6462 39.7484L58.5226 38.6821C58.1669 39.048 57.7398 39.3385 57.2672 39.5359C56.7946 39.7333 56.2863 39.8335 55.7733 39.8304" fill="#727272"/>
<path fill-rule="evenodd" clip-rule="evenodd" d="M48.4464 31.3457C48.4464 30.1395 49.0363 29.4592 50.1525 29.4592C50.7077 29.4756 51.257 29.5773 51.7806 29.7607L52.3705 28.4218C51.6572 28.0983 50.881 27.9336 50.0965 27.9394C48.2149 27.9394 46.5892 28.8681 46.5892 31.3553V31.6545H45.3535V33.1863H46.5892V41.2462H48.4416V33.1767H50.3207L50.9666 31.6448H48.4464V31.3457Z" fill="#727272"/>
<path fill-rule="evenodd" clip-rule="evenodd" d="M31.7424 31.3459C30.5067 31.3459 29.3831 31.8091 28.8176 32.7669H28.7445V31.5293H26.9482V41.2296H28.8006V35.9922C28.8006 34.0792 29.7755 32.9309 31.3256 32.9309C32.788 32.9309 33.6557 33.6956 33.6557 35.4712V41.2368H35.508V35.1479C35.508 32.6897 34.0456 31.3508 31.7473 31.3508" fill="#727272"/>
<path fill-rule="evenodd" clip-rule="evenodd" d="M22.9575 37.4952C22.9575 38.9427 21.7511 39.8714 20.0669 39.8714C19.0555 39.8714 18.1853 39.4058 18.1853 38.2575C18.1853 37.1937 19.0847 36.482 20.4593 36.482C21.695 36.482 22.5091 36.7015 22.9575 37.0296V37.4952ZM20.3472 31.346C19.3522 31.3271 18.3618 31.484 17.4225 31.8092L17.732 33.2856C18.4938 33.0385 19.2896 32.9091 20.0913 32.902C21.6609 32.902 22.9527 33.6137 22.9527 35.1986V35.4712C22.1755 35.1743 21.3484 35.0261 20.5154 35.0346C17.9904 35.0346 16.333 36.2914 16.333 38.342C16.333 40.4721 17.9611 41.4298 19.7866 41.4298C21.3026 41.4298 22.3409 40.8292 22.8747 40.1175H22.9575V41.2393H24.7538V35.1721C24.7538 32.5184 23.0136 31.346 20.3472 31.346Z" fill="#727272"/>
<path fill-rule="evenodd" clip-rule="evenodd" d="M0.0517578 28.2581V30.007H4.20733V41.2368H6.17179V30.007H10.3152V28.2581H0.0517578Z" fill="#727272"/>
<path fill-rule="evenodd" clip-rule="evenodd" d="M16.4175 31.7271C15.9065 31.5346 15.3627 31.442 14.8162 31.4545C13.7779 31.4545 12.7689 31.8646 12.2351 32.6004H12.1498V31.5293H10.3535V41.2295H12.2059V35.9222C12.2059 33.8717 13.2173 33.0515 14.7041 33.0515C15.1401 33.049 15.5745 33.1042 15.9958 33.2155L16.4175 31.7126" fill="#727272"/>
<path fill-rule="evenodd" clip-rule="evenodd" d="M67.9871 31.7561C67.4773 31.5567 66.934 31.4544 66.3858 31.4546C65.3475 31.4546 64.2239 31.8647 63.7048 32.6029H63.6V31.5294H61.8037V41.2296H63.656V35.9224C63.656 33.8718 64.7796 33.054 66.2664 33.054C66.7023 33.0507 67.1367 33.1051 67.5581 33.2156L67.9798 31.7417" fill="#727272"/>
<path fill-rule="evenodd" clip-rule="evenodd" d="M101.742 39.8159C99.9429 39.8159 98.7096 38.4216 98.7096 36.4C98.7096 34.5159 99.7771 32.902 101.515 32.902C103.509 32.902 104.042 34.5424 104.098 35.5556H100.645L99.9989 37.032H105.973C106 36.6484 106 36.5495 106 36.3493C106 33.5606 104.569 31.3484 101.481 31.3484C98.8144 31.3484 96.7646 33.4785 96.7646 36.4144C96.7646 39.4203 98.7291 41.4153 101.537 41.4153C103.221 41.4153 104.705 40.8147 105.607 39.7484L104.484 38.6821C104.128 39.048 103.701 39.3385 103.228 39.5359C102.755 39.7333 102.247 39.8335 101.734 39.8304" fill="#727272"/>
<path fill-rule="evenodd" clip-rule="evenodd" d="M41.1754 35.6307C39.7447 35.4377 38.9014 35.1651 38.9014 34.2363C38.9014 33.3871 39.7447 32.8685 40.783 32.8685C41.7083 32.8914 42.6069 33.1806 43.3689 33.7008L44.2683 32.3884C43.4274 31.7057 42.0747 31.3511 40.8146 31.3511C38.6552 31.3511 37.0539 32.6369 37.0539 34.3304C37.0539 36.2603 38.3164 36.8996 40.4515 37.2253C41.6579 37.4158 42.6962 37.5509 42.6962 38.5641C42.6962 39.4109 41.8529 39.8741 40.7318 39.8741C39.6296 39.8902 38.5566 39.5231 37.6998 38.8368L36.8857 40.2842C37.5877 40.9138 39.0476 41.406 40.6757 41.406C42.9205 41.406 44.5486 40.1201 44.5486 38.4001C44.5486 36.323 42.8644 35.8574 41.1802 35.6403" fill="#727272"/>
<path fill-rule="evenodd" clip-rule="evenodd" d="M92.4361 35.6304C91.0054 35.4374 90.1621 35.1648 90.1621 34.236C90.1621 33.3893 91.0054 32.8706 92.0437 32.8706C92.9671 32.8938 93.8639 33.1821 94.6248 33.7005L95.5241 32.3857C94.6808 31.703 93.3306 31.3484 92.0705 31.3484C89.9111 31.3484 88.3098 32.6342 88.3098 34.3277C88.3098 36.2576 89.5723 36.8969 91.7049 37.2226C92.9235 37.4132 93.9521 37.5507 93.9521 38.5615C93.9521 39.4082 93.1112 39.8738 91.9876 39.8738C90.8822 39.8918 89.8055 39.5246 88.9459 38.8365L88.1318 40.2839C88.8338 40.9111 90.2937 41.4033 91.9218 41.4033C94.1666 41.4033 95.7947 40.1175 95.7947 38.3974C95.7947 36.3203 94.1105 35.8548 92.4263 35.6376" fill="#727272"/>
</svg>

<svg width="106" height="42" viewBox="0 0 106 42" fill="none" xmlns="http://www.w3.org/2000/svg"><path fill-rule="evenodd" clip-rule="evenodd" d="M43.118.231l3.54 5.734-6.206 5.711h10.726l1.008-2.292h-5.917l3.58-3.447-2.093-3.426h9.757l-8.562 19.58h2.932L61.463.23H43.114" fill="#898989"/><path fill-rule="evenodd" clip-rule="evenodd" d="M84.713 31.53h1.852v9.7h-1.852v-9.7zm-.085-3.274h2.02v1.968h-2.02v-1.968zm-3.088.002l-2.3 10.081h-.086l-2.394-6.81h-1.657l-2.722 6.803h-.086l-1.823-10.081H68.48l2.498 12.979h1.852l2.957-7.18h.085l2.554 7.187h1.852l3.169-12.979h-1.909M55.773 39.816c-1.796 0-3.032-1.394-3.032-3.416 0-1.884 1.065-3.498 2.808-3.498 1.991 0 2.525 1.64 2.581 2.654h-3.444l-.646 1.476h5.972c.027-.384.027-.482.027-.683 0-2.788-1.431-5-4.52-5-2.666 0-4.715 2.13-4.715 5.065 0 3.006 1.964 5.001 4.772 5.001 1.684 0 3.168-.6 4.07-1.667l-1.123-1.066a3.817 3.817 0 01-2.75 1.148m-7.327-8.484c0-1.206.59-1.887 1.707-1.887a5.409 5.409 0 011.628.302l.59-1.34a5.41 5.41 0 00-2.275-.482c-1.881 0-3.507.93-3.507 3.416v.3h-1.236v1.531h1.236v8.06h1.853v-8.07h1.879l.646-1.531h-2.52v-.3zm-16.704 0c-1.235 0-2.359.463-2.924 1.42h-.074V31.53h-1.796v9.7h1.853v-5.237c0-1.913.975-3.061 2.525-3.061 1.462 0 2.33.765 2.33 2.54v5.766h1.852v-6.09c0-2.457-1.462-3.796-3.76-3.796m-8.791 6.143c0 1.448-1.206 2.376-2.89 2.376-1.012 0-1.882-.465-1.882-1.614 0-1.063.9-1.775 2.274-1.775 1.236 0 2.05.22 2.498.548v.465zm-2.61-6.149a8.45 8.45 0 00-2.925.463l.31 1.477a7.874 7.874 0 012.36-.384c1.569 0 2.86.712 2.86 2.297v.272a6.641 6.641 0 00-2.437-.436c-2.525 0-4.182 1.256-4.182 3.307 0 2.13 1.628 3.088 3.454 3.088 1.516 0 2.554-.6 3.088-1.313h.082v1.122h1.797v-6.067c0-2.654-1.74-3.826-4.407-3.826zM.052 28.258v1.749h4.155v11.23h1.965v-11.23h4.143v-1.749H.052zm16.366 3.469a4.266 4.266 0 00-1.602-.273c-1.038 0-2.047.41-2.58 1.146h-.086v-1.07h-1.796v9.7h1.852v-5.308c0-2.05 1.011-2.87 2.498-2.87.436-.003.87.052 1.292.163l.421-1.502m51.57.043a4.392 4.392 0 00-1.601-.301c-1.038 0-2.162.41-2.681 1.148H63.6v-1.074h-1.796v9.7h1.852v-5.307c0-2.05 1.124-2.868 2.61-2.868.436-.003.87.051 1.292.162l.422-1.474m33.762 8.074c-1.8 0-3.032-1.394-3.032-3.416 0-1.884 1.067-3.498 2.805-3.498 1.994 0 2.527 1.64 2.583 2.654h-3.453l-.646 1.476h5.974c.027-.384.027-.482.027-.683 0-2.788-1.431-5-4.519-5-2.667 0-4.716 2.13-4.716 5.065 0 3.006 1.964 5.001 4.772 5.001 1.684 0 3.168-.6 4.07-1.667l-1.123-1.066a3.819 3.819 0 01-2.75 1.148m-60.559-4.2c-1.43-.192-2.274-.465-2.274-1.394 0-.849.844-1.367 1.882-1.367a4.798 4.798 0 012.586.832l.9-1.313c-.842-.682-2.194-1.037-3.454-1.037-2.16 0-3.761 1.286-3.761 2.98 0 1.93 1.262 2.569 3.398 2.894 1.206.19 2.244.326 2.244 1.34 0 .846-.843 1.31-1.964 1.31a4.74 4.74 0 01-3.032-1.038l-.814 1.447c.702.63 2.162 1.122 3.79 1.122 2.244 0 3.873-1.286 3.873-3.006 0-2.077-1.685-2.543-3.369-2.76m51.256-.01c-1.43-.193-2.274-.465-2.274-1.394 0-.847.843-1.365 1.882-1.365a4.8 4.8 0 012.58.83l.9-1.315c-.843-.683-2.193-1.038-3.454-1.038-2.159 0-3.76 1.286-3.76 2.98 0 1.93 1.262 2.569 3.395 2.895 1.219.19 2.247.328 2.247 1.339 0 .846-.84 1.312-1.964 1.312a4.745 4.745 0 01-3.042-1.038l-.814 1.448c.702.627 2.162 1.12 3.79 1.12 2.245 0 3.873-1.287 3.873-3.007 0-2.077-1.684-2.542-3.369-2.76" fill="#727272"/></svg>
